X:1
T:Es kennt der Herr die Seinen
T:Felix Mendelssohn
T:Philipp Spitta
T:Es kennt der Herr die Seinen
T:CPDL   —   Creative Commons Attribution Non Commercial 3.0
T:CPDL   —   Creative Commons Attribution Non Commercial 3.0
C:Felix Mendelssohn
Z:Philipp Spitta
Z:CPDL   —   Creative Commons Attribution Non Commercial 3.0
%%score [ ( 1 2 ) ( 3 4 ) ]
L:1/8
Q:1/4=72
M:2/4
K:Bb
V:1 treble nm="S\nA"
V:2 treble 
V:3 bass nm="T\nB"
V:4 bass 
V:1
!mf!"^Mäßig bewegt" F | f>e dc |!>(! c2 B!>)!!p!B | cc c{dc}B/c/ | d3 |!mf! d | !^!e>c BA | %7
w: 1.  Es|kennt der Herr die|Sei- nen und|hat sie stets _ ge-|kannt,|die|Gro- ßen und die|
w: 2.  Er|ken- net sei- ne|Scha- ren am|Glau- ben, der * nicht|schaut|und|doch dem Un- sicht-|
w: 3.  Er|kennt sie an der|Lie- be, die|sei- ner Lie- * be|Frucht|und|die mit rei- nem|
w: 4.  So|kennt der Herr die|Sei- nen wie|er sie stets _ ge-|kannt,|die|Gro- ßen und die|
w: 5.  O|hilf uns, Herr, zum|Glau- ben und|halt uns fest _ da-|bei;|lass|nichts die Hoff- nung|
!>(! B2 F!>)!d |!f! !^!e>c BA | B2 z |!p! d | cB AG |!>(! ^FA G!>)!!p!d | c>B AG | (G2 F) |!f! F | %16
w: Klei- nen in|je- dem Volk und|Land.|Er|lässt sie nicht ver-|der- * ben, er|führt sie aus und|ein; _|im|
w: ba- ren, als|säh' er ihn, ver-|traut.|Er|kennt sie als die|Sei- * nen an|ih- rer Hoff- nung|Mut, _|die|
w: Trie- be ihm|zu ge- fal- len|sucht;|die|An- dern so be-|geg- * net, wie|er das Herz be-|wegt, _|die|
w: Klei- nen in|je- dem Volk und|Land;|am|Wort der Gna- den-|lie- * be durch|sei- nes Geis- tes|Stärk', _|an|
w: rau- ben, die|Lie- be herz- lich|sei!|Und|wird der Tag er-|schei- * nen, da|dich die Welt wird|seh'n, _|so|
 f>e dc |!>(! c2 B!>)!!p!B | cc c{dc}B/c/ | d3 |!mf! d | !^!e>c BA |!>(! B2 F!>)!!f!d | %23
w: Le- ben und im|Ster- ben sind|sie und blei- * ben|sein,|im|Le- ben und im|Ster- ben sind|
w: fröh- lich auf dem|Ei- nen, dass|er der Herr _ ist,|ruht,|die|fröh- lich auf dem|Ei- nen, dass|
w: seg- net, wie er|seg- net, und|trägt, wie er _ sie|trägt,|die|seg- net, wie er|seg- net, und|
w: Glau- ben Hoff- nung,|Lie- be als|sei- ner Gna- * de|Werk,|an|Glau- ben Hoff- nung,|Lie- be als|
w: lass uns als die|Dei- nen zu|dei- ner Rech- * ten|steh'n,|so|lass uns als die|Dei- nen zu|
[Q:1/4=66]"^rit." !^!e>c B!>(!A!>)! | !fermata!B2 z |] %25
w: sie und blei- ben|sein.|
w: er der Herr ist,|ruht.|
w: trägt, wie er sie|trägt.|
w: sei- ner Gna- de|Werk.|
w: dei- ner Rech- ten|steh'n!|
V:2
 F | F>G FE | E2 DD | GG F>F | F3 | F | F>F FF | F2 DF | F>F FF | F2 x | F | GF ED | D2 D=F | %13
 =E>E EE | (=E2 F) | F | F>G F_E | E2 DD | GG F>F | F3 | F | F>F FF | F2 DF | G>G FE | D2 x |] %25
V:3
!mf! F, | B,>B, B,A, |!>(! A,2 B,!>)!!p!B, | B,B, A,G,/A,/ | B,3 |!mf! B, | !^!A,>A, B,E | %7
!>(! D2 B,!>)!B, |!f! !^!A,>A, B,C | D2 z |!p! B, | ED CB, |!>(! A,C B,!>)!!p!B, | G,>C CB, | %14
 (B,2 A,) |!f! A, | B,>B, B,A, |!>(! A,2 B,!>)!!p!B, | B,B, A,G,/A,/ | B,3 |!mf! B, | %21
 !^!A,>A, B,E |!>(! D2 B,!>)!!f!B, | !^!B,>E D!>(!C!>)! | !fermata!B,2 z |] %25
V:4
 F, | D,>E, F,F, | F,2 G,G, | E,E, F,>F, | B,,3 | B,, | C,>E, D,C, | B,,2 B,,B,, | C,>E, D,F, | %9
 B,,2 x | z | z4 | z2 z B,, | C,>C, C,C, | F,3 | _E, | D,>E, F,F, | F,2 G,G, | E,E, F,>F, | B,,3 | %20
 B,, | C,>E, D,C, | B,,2 B,,B,, | E,>E, F,F, | B,,2 x |] %25

